img/sponsor-moo.svg

<svg width="256" height="84" viewBox="0 0 256 84" xmlns="http://www.w3.org/2000/svg"><title>sponsor-moo</title><path d="M106.6 57.6l19.6-38c.7-1.5 1.8-2.3 3.3-2.3 1.8 0 3.3 1.3 3.3 3.3v46c0 1.8-1.3 3.6-3.3 3.6-2.3 0-3.6-1.8-3.6-3.6V34.4l-15.5 30c-1.3 1.8-2.8 2.3-3.9 2.3-.8 0-2.5-.3-3.9-2.3l-15.5-30v32c0 1.8-1.3 3.6-3.6 3.6-2.1 0-3.3-1.8-3.3-3.6V20.7c0-2.3 1.5-3.3 3.3-3.3 1.8 0 2.5.8 3.3 2.3l19.8 37.9zm60.8 6.5c-11.2 0-20.3-9-20.3-20.3 0-11.2 9-20.3 20.3-20.3 11.2 0 20.3 9 20.3 20.3-.1 11.2-9.3 20.3-20.3 20.3zm27.1-20.3c0-14.9-12.2-27.2-27.2-27.2s-27.2 12.2-27.2 27.2S152.3 71 167.3 71s27.2-12.3 27.2-27.2zM228 64.1c-11.2 0-20.3-9.1-20.3-20.3 0-11.2 9-20.3 20.3-20.3 11.2 0 20.3 9 20.3 20.3-.1 11.2-9.2 20.3-20.3 20.3zm27.1-20.3c0-14.9-12.2-27.2-27.2-27.2s-27.2 12.2-27.2 27.2S213 70.9 228 70.9s27.1-12.2 27.1-27.1zM28.8 76.4c6.6 0 12.7-3 16.7-8.1 2.8-3.6 4.3-8.1 4.3-12.7 0-1.5-.3-2.8-.4-4.3-.8-4.7-4.4-12.7-10.6-23.6-4.8-8.4-8.9-14.5-8.9-14.5l-1.1-1.5L28 13s-4 6.2-8.7 14.4C12.8 38.2 9.1 46.3 8.6 51c-.3 1.5-.4 2.8-.4 4.3 0 4.7 1.5 9 4.3 12.7 3.6 5.5 9.7 8.4 16.3 8.4zm0 7.3c-8.7 0-16.7-3.9-22.1-10.9C2.9 67.9.9 62.1.9 55.9c0-1.8.3-3.9.7-5.5 1.1-6.2 5.5-16.3 13.7-30.1 6-10.2 10.8-18 11.1-18 .4-.8 1-1.8 2.3-1.8 1.3 0 1.8 1.1 2.5 1.8 0 0 5.1 7.6 11.2 18 8.1 13.8 12.6 23.8 13.7 30 .4 1.8.7 3.6.7 5.5 0 6.2-1.8 12-5.8 17-5.6 6.8-13.7 10.9-22.2 10.9z" fill="#005EC6" fill-rule="evenodd"/></svg>

<?xml version="1.0" encoding="UTF-8" standalone="no"?>
<svg width="256px" height="84px" viewBox="0 0 256 84" version="1.1" xmlns="http://www.w3.org/2000/svg" xmlns:xlink="http://www.w3.org/1999/xlink" xmlns:sketch="http://www.bohemiancoding.com/sketch/ns">
    <!-- Generator: Sketch 3.3.3 (12072) - http://www.bohemiancoding.com/sketch -->
    <title>sponsor-moo</title>
    <desc>Created with Sketch.</desc>
    <defs></defs>
    <g id="Page-1" stroke="none" stroke-width="1" fill="none" fill-rule="evenodd" sketch:type="MSPage">
        <g id="sponsor-moo" sketch:type="MSLayerGroup" fill="#005EC6">
            <path d="M106.6,57.6 L126.2,19.6 C126.9,18.1 128,17.3 129.5,17.3 C131.3,17.3 132.8,18.6 132.8,20.6 L132.8,66.6 C132.8,68.4 131.5,70.2 129.5,70.2 C127.2,70.2 125.9,68.4 125.9,66.6 L125.9,34.4 L110.4,64.4 C109.1,66.2 107.6,66.7 106.5,66.7 C105.7,66.7 104,66.4 102.6,64.4 L87.1,34.4 L87.1,66.4 C87.1,68.2 85.8,70 83.5,70 C81.4,70 80.2,68.2 80.2,66.4 L80.2,20.7 C80.2,18.4 81.7,17.4 83.5,17.4 C85.3,17.4 86,18.2 86.8,19.7 L106.6,57.6 L106.6,57.6 Z M167.4,64.1 C156.2,64.1 147.1,55.1 147.1,43.8 C147.1,32.6 156.1,23.5 167.4,23.5 C178.6,23.5 187.7,32.5 187.7,43.8 C187.6,55 178.4,64.1 167.4,64.1 L167.4,64.1 Z M194.5,43.8 C194.5,28.9 182.3,16.6 167.3,16.6 C152.3,16.6 140.1,28.8 140.1,43.8 C140.1,58.8 152.3,71 167.3,71 C182.3,71 194.5,58.7 194.5,43.8 L194.5,43.8 Z M228,64.1 C216.8,64.1 207.7,55 207.7,43.8 C207.7,32.6 216.7,23.5 228,23.5 C239.2,23.5 248.3,32.5 248.3,43.8 C248.2,55 239.1,64.1 228,64.1 L228,64.1 Z M255.1,43.8 C255.1,28.9 242.9,16.6 227.9,16.6 C212.9,16.6 200.7,28.8 200.7,43.8 C200.7,58.8 213,70.9 228,70.9 C243,70.9 255.1,58.7 255.1,43.8 L255.1,43.8 Z M28.8,76.4 C35.4,76.4 41.5,73.4 45.5,68.3 C48.3,64.7 49.8,60.2 49.8,55.6 C49.8,54.1 49.5,52.8 49.4,51.3 C48.6,46.6 45,38.6 38.8,27.7 C34,19.3 29.9,13.2 29.9,13.2 L28.8,11.7 L28,13 C28,13 24,19.2 19.3,27.4 C12.8,38.2 9.1,46.3 8.6,51 C8.3,52.5 8.2,53.8 8.2,55.3 C8.2,60 9.7,64.3 12.5,68 C16.1,73.5 22.2,76.4 28.8,76.4 L28.8,76.4 Z M28.8,83.7 C20.1,83.7 12.1,79.8 6.7,72.8 C2.9,67.9 0.9,62.1 0.9,55.9 C0.9,54.1 1.2,52 1.6,50.4 C2.7,44.2 7.1,34.1 15.3,20.3 C21.3,10.1 26.1,2.3 26.4,2.3 C26.8,1.5 27.4,0.5 28.7,0.5 C30,0.5 30.5,1.6 31.2,2.3 C31.2,2.3 36.3,9.9 42.4,20.3 C50.5,34.1 55,44.1 56.1,50.3 C56.5,52.1 56.8,53.9 56.8,55.8 C56.8,62 55,67.8 51,72.8 C45.4,79.6 37.3,83.7 28.8,83.7 L28.8,83.7 Z" id="Shape" sketch:type="MSShapeGroup"></path>
        </g>
    </g>
</svg>
